X:1
T:Title
%%score { 1 | 2 }
L:1/8
M:2/2
K:Bb
V:1 treble nm="Grand Piano"
V:2 bass 
V:1
 z4[Q:1/4=148] [DF]4 | [DB]2 [DB]2 [DB]2 [FA]2 | [EG]4 [=Ec]4 | [FB]4 [EA]4 |[M:3/4] [DB]6 | %5
[M:2/4] [DF]4 |[M:4/4] [DB]2 [DB]2 [DB]2 [FA]2 | [EG]4 [=Ec]4 | [FB]4 [EA]4 |[M:3/4] [DB]6 | %10
[M:2/4] [DB]4 |[M:4/4] c2 c2 d2 d2 |[M:2/4] [Ge]4 | [Fd]4 |[M:4/4] [=Ec]2 [EB]2 [FA]2 [EG]2 | %15
 F4 [DF]4 | [DB]2 [DB]2 c2 c2 | d4 [Gc]4 | [FB]4 [EA]4 |[M:2/4] [DB]4 |] %20
V:2
 z4 [B,,B,]4 | [B,,F,]2 [B,,F,]2 [B,,B,]2 [D,B,]2 | [E,B,]4 [C,C]4 | [F,D]4 [F,C]4 | %4
[M:3/4] [B,,B,]6 |[M:2/4] [B,,B,]4 |[M:4/4] [B,,F,]2 [B,,F,]2 [B,,B,]2 [D,B,]2 | [E,B,]4 [C,C]4 | %8
 [F,D]4 [F,C]4 |[M:3/4] [B,,B,]6 |[M:2/4] [B,,B,]4 | %11
[M:4/4][K:treble] [F,A,F]2 [F,A,F]2 [B,F]2 [B,F]2 |[M:2/4][K:bass] [E,B,]4 | [B,,B,]4 | %14
[M:4/4] [C,G,]2 [C,C]2 [C,C]2 [C,B,]2 | [F,A,]4 [B,,B,]4 | %16
 [B,,B,]2 [B,,B,]2[K:treble] [F,A,F]2 [F,A,F]2 | [B,F]4[K:bass] [E,E]4 | [F,D]4 [F,C]4 | %19
[M:2/4] [B,,B,]4 |] %20

